X:1
T:Title
%%score { ( 1 3 ) | ( 2 4 ) }
L:1/8
Q:1/4=112
M:4/4
K:Bb
V:1 treble nm="Grand Piano"
V:3 treble 
V:2 bass 
V:4 bass 
V:1
 [Fd]2 [Fd]2 [Fc]2 [Fc]2 | B>A B>c B2 A2 | G2 G2 F2 B2 | c>G c>d c4 | [Fd]2 [Fd]2 [Fc]2 [Fc]2 | %5
w: Powell~G.~Fithian * * *|||||
 B>A B>c B2 A2 | G2 F2 B2 d2 | c>B c>F [DB]4 | F2 B2 G2 B2 | A>B G>A z2 F,2 | F2 B2 A2 B2 | %11
w: ||||||
 c2 [=EG]2 c2- [Fc]2 | F2 B2 G2 B2 | A>B G>A z2 F,2 | B2 [FB]2 [Fc]2 [Fc]2 | %15
w: ||||
 [G_d]2 [Gd]2 =d2- [=Fd]2 | [Ee]2 z2 z4 | c4 z4 |] %18
w: |||
V:2
 [B,,B,]2 [D,B,]2 [F,A,]2 [E,A,]2 | [D,B,]2 [=E,G,C]2 [F,D]2 [F,C]2 | %2
 [G,B,E]2 [A,CE]2 [B,D]2 [G,B,D]2 | [C,B,]2 [C,B,]2 [F,A,F]4 | [B,,B,]2 [D,B,]2 [F,A,]2 [E,A,]2 | %5
 [D,B,]2 [=E,G,C]2 [F,D]2 [F,C]2 | [G,B,E]2 [A,CE]2 [B,D]2 [G,B,F]2 | [C,B,]2 [F,A,E]2 [B,,F,]4 | %8
 [B,D]2 [F,B,D]2 [B,D]2 [F,B,D]2 | [CE]2 [F,CE]2 [CE]4 | [B,D]2 [F,B,D]2 [B,D]2 [F,B,D]2 | %11
 z4 B,2 z2 | [B,D]2 [F,B,D]2 [B,D]2 [F,B,D]2 | [CE]2 [F,CE]2 [CE]4 | %14
 [G,B,D]2 [D,B,]2 [F,A,]2 [E,A,]2 | [=E,A,]2 [A,,A,]2 [D,A,]2 [G,=B,]2 | %16
 .[C,G,]2 [D,A,]2 [G,B,]2 [C,B,]2 | B,2 z2 z4 |] %18
V:3
 x8 | F2 z2 z4 | x8 | =E2 E2 z4 | x8 | F2 z2 z4 | x8 | =E2 z2 z4 | x8 | z4 F4 | x8 | z4 G2 z2 | %12
 x8 | z4 F4 | x8 | z4 ^F2 z2 | z C [^Fd]2 [DB]2 [=Ec]2 | z2 A,2 [DB]4 |] %18
V:4
 x8 | x8 | x8 | x8 | x8 | x8 | x8 | x8 | x8 | z4 A,2 z2 | x8 | %11
 [G,B,=E]2 [C,B,]2 [F,_E]2- [F,A,E]2 | x8 | z4 A,2 z2 | x8 | x8 | x8 | [F,E]4 [B,,F,B,]4 |] %18

